!!!COM: Corelli, Arcangelo
!!!OTL: 
!!!ONM: Opus 3, No. 9
!!!OMV: 1
!!!CDT: 1653/2/17/-1713/1/8/
!!!OCY: Italia
**kern	**kern	**kern	**kern
*clefC	*clefC	*clefG	*clefG
*k[b-e-]	*k[b-e-]	*k[b-e-]	*k[b-e-]
*B-:	*B-:	*B-:	*B-:
*M3/2	*M3/2	*M3/2	*M3/2
=1	=1	=1	=1
2r	2r	1.r	2r
2r	2r	.	2r
2f	2f	.	2f
=2	=2	=2	=2
1e	1e	2r	[1.cc
.	.	2r	.
2e-	2e-	2cc	.
=3	=3	=3	=3
1d	1d	[1.ff	2cc]
.	.	.	2b-
2d-	2d-	.	4f
.	.	.	4g
=4	=4	=4	=4
1c	1c	2ff]	2a-
.	.	1ee	2g
2C	2C	.	[2gg
=5	=5	=5	=5
1F	1F	1aa-	2gg]
.	.	.	2ff
2AA	2AA	2cc	2ee-
=6	=6	=6	=6
1BB-	1BB-	1f	1dd-
[2C	[2C	[2e	[2cc
=7	=7	=7	=7
2C]	2C]	2e]	2cc]
1D-	1D-	1f	1b-
=8	=8	=8	=8
1C	1C	1e	1cc
2C	2C	2r	2cc
=9	=9	=9	=9
1D	1D	1r	2f
.	.	.	[1b-
2E	2E	2gg	.
=10	=10	=10	=10
1F	1F	2cc	2b-]
.	.	2.ff	2a-
2AA-	2AA-	.	2cc
.	.	4cc	.
=11	=11	=11	=11
1BB-	1BB-	1dd-	1e
2AA-	2AA-	2cc	[2f
=12	=12	=12	=12
2BB-	2BB-	4b-	2f]
.	.	4a-	.
1C	1C	2.g	2.f
.	.	4g	4e
=13	=13	=13	=13
1F	1F	1f	1f
2E	2E	2g	2cc
=14	=14	=14	=14
1F	1F	1c	2a-
.	.	.	2f
2f	2f	2cc	2aa-
=15	=15	=15	=15
1f	1f	2dd	1b
.	.	2g	.
2e-	2e-	[2cc	2gg
=16	=16	=16	=16
2d	2d	2cc]	[1.ff
2G	2G	2b	.
2B	2B	2dd	.
=17	=17	=17	=17
1c	1c	1g	2ff]
.	.	.	4ee-
.	.	.	4dd
2E-	2E-	2gg	4cc
.	.	.	4b-
=18	=18	=18	=18
1F	1F	1cc	1a
[2E	[2E	[2dd-	[2b-
=19	=19	=19	=19
2E]	2E]	2dd-]	2b-]
1F	1F	1cc	2.b-
.	.	.	4a
=20	=20	=20	=20
1BB-	1BB-	1b-	2b-
.	.	.	[1dd-
2B-	2B-	2r	.
=21	=21	=21	=21
1E	1E	2r	2dd-]
.	.	[1gg	2cc
2C	2C	.	2b-
=22	=22	=22	=22
1F	1F	2gg]	2a-
.	.	2ff	[1ccc
2FF	2FF	2ee-	.
=23	=23	=23	=23
1BB-	1BB-	2dd	2ccc]
.	.	2ee	2bb-
2BB-	2BB-	2ff	2aa-
=24	=24	=24	=24
1C	1C	2ee	1gg
.	.	2cc	.
[2BB-	[2BB-	[2ff	[2aa-
=25	=25	=25	=25
2BB-]	2BB-]	2ff]	2aa-]
1C	1C	2.ff	1gg
.	.	4ee	.
=26	=26	=26	=26
1F	1F	2ff	1ff
.	.	2a-	.
2E-	2E-	2cc	2r
=27	=27	=27	=27
1D-	1D-	1f	2r
.	.	.	2b-
2BB-	2BB-	2f	2dd-
=28	=28	=28	=28
1BB-	1BB-	1g	1e
2AA-	2AA-	[2a-	[2f
=29	=29	=29	=29
2BB-	2BB-	2a-]	2f]
1C	1C	1g	2.f
.	.	.	4e
=30	=30	=30	=30
1.FF	1.FF	1.f	1.f
==	==	==	==
*-	*-	*-	*-
!!!RWG: This file only contains pitch and duration data.
!!!RWG: Transposing instruments are not transposed.
!!!RWG: Durations of rests and tied notes may be interpreted.
!!!RWG: Key is interpreted using the Humdrum key tool.
!!!SCA: 
!!!YOR: Chrysander Edition
!!!AGN: chamber
!!!AFT: stage1
!!!ENC: F. Bennion
!!!END: 1997/04/15
!!!AST: baroque
!!!YEC: Copyright 1994, Center for Computer Assisted Research in the Humanities
!!!YEM: Rights to all derivative electronic formats reserved.
!!!YEM: Refer to licensing agreement for further details.
!!!YEN: United States of America
!!!EED: W.B. Hewlett
!!!KEY: 3819776107
!!!EMD: Converted from MuseData to Humdrum Aug 9, 1999, by Bret Aarden using muse2kern.
!!!VTS: 3839651576
